X:1
T:Jeshurun, 76.76.77.76
T:Jeshurun, 76.76.77.76
T:Henry John Gauntlett (1805–1876)
T:Public Domain Courtesy of the Cyber Hymnal™
C:Henry John Gauntlett (1805–1876)
Z:Public Domain
Z:Courtesy of the Cyber Hymnal™
%%score ( 1 2 ) ( 3 4 )
L:1/8
Q:1/4=110
M:2/2
K:Bb
V:1 treble 
V:2 treble 
V:3 bass 
V:4 bass 
V:1
 F2 [FB]2 [Fd]3 [Fd] | [Ed]2 [Ec]2 [EF]2 [CF]2 | F2 [FB]2 [EB]2 [EA]2 | [DB]8 | %4
 F2 [FB]2 [Fd]3 [Fd] | [Fd]2 [=Ec]2 F2 [CF]2 | F2 [FB]2 [EB]2 [EA]2 | [DB]8 | F3 F [=EG]2 F2 | %9
 [=Ec]3 [EB] (B2 A2) | [CF]3 [CF] [FA]2 [FB]2 | [Ge]2 [Ee]2 [Fd]4 | D2 [DG]2 [DG]2 [D^F]2 | %13
 [DG]2 [GB]2 [^FA]2 [=FB]2 | [GB]2 [Gc]2 [FA]2 [FA]2 | [FB]8 |] %16
V:2
 F2 x6 | x8 | x8 | x8 | F2 x6 | x4 F2 x2 | F2 x6 | x8 | F3 F x F2 x | x4 F4 | x8 | x8 | D2 x6 | %13
 x8 | x8 | x8 |] %16
V:3
 [D,B,]2 [B,,B,]2 B,3 B, | [F,A,]2 [F,A,]2 [F,A,]2 [F,A,]2 | [D,B,]2 [B,,D]2 [F,C]2 [F,C]2 | %3
 [B,,B,]8 | [D,B,]2 [B,,D]2 B,3 B, | [B,,B,]2 [C,G,]2 [F,A,]2 [F,A,]2 | %6
 [D,B,]2 [B,,D]2 [F,C]2 [F,C]2 | [B,,B,]8 | [B,,D]3 [B,,D] [B,_D]2 [A,C]2 | [G,C]3 [G,C] [F,C]4 | %10
 [F,A,]3 [F,A,] [E,C]2 [D,B,]2 | [C,B,]2 [C,A,]2 [B,,B,]4 | [B,,B,]2 [G,,B,]2 [D,A,]2 A,2 | %13
 [B,,G,]2 [G,,D]2 [D,D]2 [D,B,]2 | [E,B,]2 [E,E]2 [F,C]2 [F,C]2 | [B,,D]8 |] %16
V:4
 x4 B,3 B, | x8 | x8 | x8 | x4 B,3 B, | x8 | x8 | x8 | x8 | x8 | x8 | x8 | x6 (D,C,) | x8 | x8 | %15
 x8 |] %16

